X:140
T:Polska efter Johan Jacob Bruun
R:sl\"angpolska
A:Sk{\aa}ne
B:SvL Sk{\aa}ne 533
Z:id:hn-sp-140
M:3/4
L:1/16
K:Dm
A2d2 d2^c2 ^c2A2 | A=B^cd e6^c2 | d2d^c d2e2 f2g2 | a2a2 gabg a4 | 
A2d2 d2^c2 ^c2A2 | A=B^cd e6^c2 | d2^c2 d2e2 f2ed | e2d^c d4 D4 :| 
|: f2a2 f2a2 bagf | e2g2 e2g2 agfe | f2a2 f2a2 bagf |
e2g2 e2g2 agfe | d^cde fefg abag | fed^c e4 d4 :|
<end>
<start>
